icons/cup-smooth.svg

<svg xmlns="http://www.w3.org/2000/svg" viewBox="0 0 24 24" fill="currentColor">
  <path d="M3.75 8c0-1.28579.96421-2.25 2.25-2.25h8c1.2858 0 2.25.96421 2.25 2.25v4c0 .7918-.1767 1.6011-.4513 2.3343-.8902 2.31-3.1121 3.9157-5.7987 3.9157-3.48579 0-6.25-2.7642-6.25-6.25V8Zm13.1431 7.5623C15.6293 18.0712 13.04 19.75 10 19.75c-4.31421 0-7.75-3.4358-7.75-7.75V8c0-2.11421 1.63579-3.75 3.75-3.75h8c2.1142 0 3.75 1.63579 3.75 3.75v.26345c.0847-.0086.1686-.01345.25-.01345 1.9979 0 3.75 1.61963 3.75 3.75 0 2.1142-1.6358 3.75-3.75 3.75-.3691 0-.7568-.0785-1.1069-.1877ZM17.75 12V9.77742c.0965-.01747.1827-.02742.25-.02742 1.2021 0 2.25.9804 2.25 2.25 0 1.2858-.9642 2.25-2.25 2.25-.1659 0-.3651-.0354-.5654-.0916.194-.6815.3154-1.4152.3154-2.1584Z"/>
</svg>

<svg width="24" height="24" viewBox="0 0 24 24" fill="none" xmlns="http://www.w3.org/2000/svg">
<path fill-rule="evenodd" clip-rule="evenodd" d="M3.75 8C3.75 6.71421 4.71421 5.75 6 5.75H14C15.2858 5.75 16.25 6.71421 16.25 8L16.25 8.65944V12C16.25 12.7918 16.0733 13.6011 15.7987 14.3343C14.9085 16.6443 12.6866 18.25 10 18.25C6.51421 18.25 3.75 15.4858 3.75 12V8ZM16.8931 15.5623C15.6293 18.0712 13.04 19.75 10 19.75C5.68579 19.75 2.25 16.3142 2.25 12V8C2.25 5.88579 3.88579 4.25 6 4.25H14C16.1142 4.25 17.75 5.88579 17.75 8V8.26345C17.8347 8.25485 17.9186 8.25 18 8.25C19.9979 8.25 21.75 9.86963 21.75 12C21.75 14.1142 20.1142 15.75 18 15.75C17.6309 15.75 17.2432 15.6715 16.8931 15.5623ZM17.75 12V9.77742C17.8465 9.75995 17.9327 9.75 18 9.75C19.2021 9.75 20.25 10.7304 20.25 12C20.25 13.2858 19.2858 14.25 18 14.25C17.8341 14.25 17.6349 14.2146 17.4346 14.1584C17.6286 13.4769 17.75 12.7432 17.75 12Z" fill="black"/>
</svg>
